svgs/sharp-solid/p.svg

<svg xmlns="http://www.w3.org/2000/svg" viewBox="0 0 320 512"><!--! Font Awesome Pro 6.6.0 by @fontawesome - https://fontawesome.com License - https://fontawesome.com/license (Commercial License) Copyright 2024 Fonticons, Inc. --><path d="M64 288l96 0c53 0 96-43 96-96s-43-96-96-96L64 96l0 192zM0 352l0-32 0-32L0 96 0 64 0 32l32 0 32 0 96 0c88.4 0 160 71.6 160 160s-71.6 160-160 160l-96 0 0 96 0 32L0 480l0-32 0-96z"/></svg>

<svg xmlns="http://www.w3.org/2000/svg" viewBox="0 0 320 512"><!--! Font Awesome Pro 6.4.0 by @fontawesome - https://fontawesome.com License - https://fontawesome.com/license (Commercial License) Copyright 2023 Fonticons, Inc. --><path d="M64 288h96c53 0 96-43 96-96s-43-96-96-96H64V288zM0 352V320 288 96 64 32H32 64h96c88.4 0 160 71.6 160 160s-71.6 160-160 160H64v96 32H0V448 352z"/></svg>
